isaac-pog.svg

<svg shape-rendering="crispEdges" viewBox="0 -.5 30 30" xmlns="http://www.w3.org/2000/svg"><path d="m11 0h8m-11 1h13m-15 1h5m8 0h4m-18 1h3m13 0h4m-21 1h2m17 0h3m-22 1h2m17 0h3m-23 1h2m17 0h5m-25 1h2m21 0h3m-26 1h2m22 0h2m-27 1h2m24 0h2m-28 1h2m24 0h2m-29 1h2m24 0h4m-30 1h2m24 0h2m-28 1h2m20 0h6m-28 1h2m19 0h9m-30 1h2m18 0h6m1 0h3m-29 1h2m17 0h6m1 0h2m-28 1h2m15 0h7m2 0h2m-27 1h2m15 0h4m3 0h2m-26 1h2m15 0h4m3 0h2m-25 1h2m15 0h2m3 0h2m-24 1h2m15 0h2m3 0h2m-23 1h2m17 0h3m-21 1h3m10 0h7m-19 1h5m8 0h4m-16 1h15m-16 1h2m3 0h8m2 0h2m-18 1h2m15 0h3m-20 1h2m15 0h3m-20 1h2m15 0h3" stroke="#030001"/><path d="m11 2h8m-11 1h2m10 0h1m-15 1h1m15 0h1m-17 1h1m15 0h1m-18 1h1m10 0h1m4 0h1m-18 1h1m8 0h1m9 0h2m-14 1h1m13 0h1m-23 1h1m22 0h1m-15 1h1m4 0h1m8 0h1m-25 1h1m15 0h1m-17 1h1m22 0h1m-24 1h1m8 0h1m9 0h1m-20 1h1m8 0h1m6 0h1m1 0h1m-9 1h1m4 0h1m-15 1h1m12 1h1m-13 1h1m20 0h1m-21 1h1m12 0h1m4 0h2m-19 1h1m15 0h1m-17 1h1m15 0h1m-16 1h1m2 1h2m4 0h1m-9 3h2m10 0h1m-14 1h1m3 0h8m2 0h1m-15 1h1m3 0h1m6 0h1m2 0h1m-15 1h1m13 0h1" stroke="#f58582"/><path d="m10 3h10m-13 1h15m-15 1h15m-16 1h7m4 0h4m-16 1h7m2 0h9m-19 1h7m1 0h13m-21 1h22m-23 1h9m6 0h8m-23 1h9m7 0h7m-23 1h9m7 0h6m-22 1h8m8 0h2m-18 1h8m8 0h1m-17 1h9m6 0h2m-16 1h15m-15 1h12m-11 1h13m-12 1h12m-11 1h12m-12 1h12m-11 1h14m-10 1h4" stroke="#f8b1a5"/><path d="m13 6h3" stroke="#040102"/><path d="m12 7h1" stroke="#050000"/><path d="m13 10h4m-5 1h6m-6 1h4m-4 1h4m-4 1h6m-5 1h4" stroke="#030102"/><path d="m16 12h2m-2 1h2" stroke="#fcefdc"/><path d="m18 12h1m10 0h1m-12 1h1m10 0h1m-28 2h1m23 0h1m-8 1h1m6 0h1m-24 1h1m13 0h1m7 0h2m-9 1h1m4 0h2m-21 1h1m20 0h1m-21 1h1m13 0h1m3 0h2m-20 1h1m13 0h1m3 0h2m-19 1h1m15 0h1m-15 1h2m7 0h1m-7 1h8" stroke="#db5960"/><path d="m28 12h1m-1 1h1" stroke="#fdefdc"/><path d="m10 26h1m-3 1h3m-3 1h2m-2 1h2" stroke="#fcb3aa"/><path d="m19 26h1m-1 1h2m-1 1h1m-1 1h1" stroke="#fab3a7"/><path d="m10 28h1m-1 1h1" stroke="#070102"/><path d="m12 28h6m-7 1h8" stroke="#fab0a4"/><path d="m19 28h1m-1 1h1" stroke="#0f0202"/></svg>

<svg xmlns="http://www.w3.org/2000/svg" viewBox="0 -0.5 30 30" shape-rendering="crispEdges"><metadata>Made with Pixels to Svg https://codepen.io/shshaw/pen/XbxvNj</metadata><path stroke="#030001" d="M11 0h8M8 1h13M6 2h5M19 2h4M5 3h3M21 3h4M4 4h2M23 4h3M4 5h2M23 5h3M3 6h2M22 6h5M2 7h2M25 7h3M2 8h2M26 8h2M1 9h2M27 9h2M1 10h2M27 10h2M0 11h2M26 11h4M0 12h2M26 12h2M0 13h2M22 13h6M0 14h2M21 14h9M0 15h2M20 15h6M27 15h3M1 16h2M20 16h6M27 16h2M1 17h2M18 17h7M27 17h2M2 18h2M19 18h4M26 18h2M2 19h2M19 19h4M26 19h2M3 20h2M20 20h2M25 20h2M3 21h2M20 21h2M25 21h2M4 22h2M23 22h3M5 23h3M18 23h7M6 24h5M19 24h4M7 25h15M6 26h2M11 26h8M21 26h2M5 27h2M22 27h3M5 28h2M22 28h3M5 29h2M22 29h3"/><path stroke="#f58582" d="M11 2h8M8 3h2M20 3h1M6 4h1M22 4h1M6 5h1M22 5h1M5 6h1M16 6h1M21 6h1M4 7h1M13 7h1M23 7h2M11 8h1M25 8h1M3 9h1M26 9h1M12 10h1M17 10h1M26 10h1M2 11h1M18 11h1M2 12h1M25 12h1M2 13h1M11 13h1M21 13h1M2 14h1M11 14h1M18 14h1M20 14h1M12 15h1M17 15h1M3 16h1M16 17h1M4 18h1M25 18h1M5 19h1M18 19h1M23 19h2M6 20h1M22 20h1M6 21h1M22 21h1M7 22h1M10 23h2M16 23h1M8 26h2M20 26h1M7 27h1M11 27h8M21 27h1M7 28h1M11 28h1M18 28h1M21 28h1M7 29h1M21 29h1"/><path stroke="#f8b1a5" d="M10 3h10M7 4h15M7 5h15M6 6h7M17 6h4M5 7h7M14 7h9M4 8h7M12 8h13M4 9h22M3 10h9M18 10h8M3 11h9M19 11h7M3 12h9M19 12h6M3 13h8M19 13h2M3 14h8M19 14h1M3 15h9M18 15h2M4 16h15M4 17h12M5 18h13M6 19h12M7 20h12M7 21h12M8 22h14M12 23h4"/><path stroke="#040102" d="M13 6h3"/><path stroke="#050000" d="M12 7h1"/><path stroke="#030102" d="M13 10h4M12 11h6M12 12h4M12 13h4M12 14h6M13 15h4"/><path stroke="#fcefdc" d="M16 12h2M16 13h2"/><path stroke="#db5960" d="M18 12h1M29 12h1M18 13h1M29 13h1M2 15h1M26 15h1M19 16h1M26 16h1M3 17h1M17 17h1M25 17h2M18 18h1M23 18h2M4 19h1M25 19h1M5 20h1M19 20h1M23 20h2M5 21h1M19 21h1M23 21h2M6 22h1M22 22h1M8 23h2M17 23h1M11 24h8"/><path stroke="#fdefdc" d="M28 12h1M28 13h1"/><path stroke="#fcb3aa" d="M10 26h1M8 27h3M8 28h2M8 29h2"/><path stroke="#fab3a7" d="M19 26h1M19 27h2M20 28h1M20 29h1"/><path stroke="#070102" d="M10 28h1M10 29h1"/><path stroke="#fab0a4" d="M12 28h6M11 29h8"/><path stroke="#0f0202" d="M19 28h1M19 29h1"/></svg>
